X:645
T:Bourre de Brand
L:1/8
M:2/4
O:France
R:Bourre
Z:Richard Robinson 
%%TUNEURL: http://www.leeds.ac.uk/music/Info/RRTuneBk/gettune/00000b88.html
%%ID:00000b88
K:D
A>F DF| G3d| c>A Bc| d>e fd| A>F DF| G3d| c>A Bc | d4 ::
G2B2| d=c A2| B=c/B/ AB/A/| GFED| G2B2| d>=c A2| B=c/B/ AB| G4 :|
